assets/icons/no-package/flatpak-filled.svg

<?xml version="1.0" encoding="UTF-8" standalone="no"?>
<svg
   viewBox="0 0 24 24"
   height="24"
   id="svg7384"
   version="1.1"
   width="24"
   sodipodi:docname="flatpak-filled.svg"
   inkscape:version="1.2 (1:1.2.1+202207142221+cd75a1ee6d)"
   xmlns:inkscape="http://www.inkscape.org/namespaces/inkscape"
   xmlns:sodipodi="http://sodipodi.sourceforge.net/DTD/sodipodi-0.dtd"
   xmlns="http://www.w3.org/2000/svg"
   xmlns:svg="http://www.w3.org/2000/svg"
   xmlns:rdf="http://www.w3.org/1999/02/22-rdf-syntax-ns#"
   xmlns:cc="http://creativecommons.org/ns#"
   xmlns:dc="http://purl.org/dc/elements/1.1/">
  <sodipodi:namedview
     id="namedview25"
     pagecolor="#ffffff"
     bordercolor="#666666"
     borderopacity="1.0"
     inkscape:pageshadow="2"
     inkscape:pageopacity="0.0"
     inkscape:pagecheckerboard="0"
     showgrid="false"
     inkscape:zoom="22.627417"
     inkscape:cx="9.3691648"
     inkscape:cy="13.280349"
     inkscape:window-width="1920"
     inkscape:window-height="1016"
     inkscape:window-x="0"
     inkscape:window-y="0"
     inkscape:window-maximized="1"
     inkscape:current-layer="svg7384"
     inkscape:snap-page="true"
     inkscape:snap-global="true"
     inkscape:showpageshadow="2"
     inkscape:deskcolor="#d1d1d1">
    <inkscape:grid
       type="xygrid"
       id="grid829" />
    <inkscape:grid
       type="xygrid"
       id="grid831"
       dotted="true"
       spacingx="0.5"
       spacingy="0.5"
       empspacing="10" />
  </sodipodi:namedview>
  <metadata
     id="metadata20854">
    <rdf:RDF>
      <cc:Work
         rdf:about="">
        <dc:format>image/svg+xml</dc:format>
        <dc:type
           rdf:resource="http://purl.org/dc/dcmitype/StillImage" />
      </cc:Work>
    </rdf:RDF>
  </metadata>
  <defs
     id="defs7386">
    <linearGradient
       id="linearGradient5606"
       inkscape:swatch="solid">
      <stop
         id="stop5608"
         offset="0"
         style="stop-color:#000000;stop-opacity:1;" />
    </linearGradient>
    <linearGradient
       id="linearGradient4526"
       inkscape:swatch="solid">
      <stop
         id="stop4528"
         offset="0"
         style="stop-color:#ffffff;stop-opacity:1;" />
    </linearGradient>
    <linearGradient
       id="linearGradient3600-4"
       inkscape:swatch="gradient">
      <stop
         id="stop3602-7"
         offset="0"
         style="stop-color:#f4f4f4;stop-opacity:1" />
      <stop
         id="stop3604-6"
         offset="1"
         style="stop-color:#dbdbdb;stop-opacity:1" />
    </linearGradient>
  </defs>
  <path
     id="path866"
     style="color:#000000;fill:#808080;fill-opacity:1;-inkscape-stroke:none"
     d="M 3.3632812 2.65625 L 2.6367188 3.34375 L 4.0449219 4.8339844 C 4.0158837 5.0395165 4 5.2595156 4 5.5019531 L 4 18.501953 C 4 19.043619 4.0635992 19.485873 4.2304688 19.861328 C 4.3973381 20.236785 4.6879021 20.529497 5.0273438 20.699219 C 5.7062271 21.038659 6.500003 21.001953 7.5 21.001953 L 15.5 21.001953 C 16.499997 21.001953 17.293773 21.038661 17.972656 20.699219 C 18.198692 20.5862 18.401904 20.41724 18.5625 20.207031 L 19.636719 21.34375 L 20.363281 20.65625 L 18.957031 19.167969 L 18.957031 19.166016 L 15.164062 15.150391 L 11.65625 11.435547 L 9.4121094 9.0605469 L 8.8789062 8.4960938 L 4.4375 3.7949219 L 3.3632812 2.65625 z M 16.212891 3 C 15.987242 2.9981376 15.75 3.0019531 15.5 3.0019531 L 7.5 3.0019531 C 7.2500007 3.0019531 7.0127574 3.0000931 6.7871094 3.0019531 C 6.2105282 3.0067144 5.7085013 3.0385107 5.2578125 3.2050781 L 9.7929688 8.0058594 L 11.5 7.0898438 L 16 9.5058594 L 16 14.580078 L 19 17.755859 L 19 5.5019531 C 19 4.9602882 18.9364 4.5180343 18.769531 4.1425781 C 18.602661 3.7671219 18.312099 3.4744083 17.972656 3.3046875 C 17.463494 3.0501063 16.889835 3.0055872 16.212891 3 z M 11.5 7.9394531 L 10.326172 8.5703125 L 12.568359 10.945312 L 14.832031 9.7285156 L 11.5 7.9394531 z M 7.9667969 8.9863281 L 8.5 9.5527344 L 8.1679688 9.7304688 L 9.1835938 10.275391 L 14.25 15.640625 L 11.5 17.117188 L 7 14.701172 L 7 9.7304688 L 7 9.5058594 L 7.9667969 8.9863281 z " />
</svg>

<svg height="24" width="24" xmlns="http://www.w3.org/2000/svg"><path style="color:#000;fill:gray;fill-opacity:1;-inkscape-stroke:none" d="m3.363 2.656-.726.688 1.408 1.49A4.75 4.75 0 0 0 4 5.502v13c0 .542.064.984.23 1.36.167.375.458.667.797.837.68.34 1.473.303 2.473.303h8c1 0 1.794.037 2.473-.303a1.71 1.71 0 0 0 .59-.492l1.074 1.137.726-.688-1.406-1.488v-.002l-3.793-4.016-3.508-3.714L9.412 9.06l-.533-.565-4.441-4.701-1.075-1.139zM16.213 3c-.226-.002-.463.002-.713.002h-8c-.25 0-.487-.002-.713 0-.576.005-1.078.037-1.53.203l4.536 4.8L11.5 7.09 16 9.506v5.074l3 3.176V5.502c0-.542-.064-.984-.23-1.36a1.72 1.72 0 0 0-.797-.837c-.51-.255-1.083-.3-1.76-.305zM11.5 7.94l-1.174.63 2.242 2.375 2.264-1.216-3.332-1.79zM7.967 8.985l.533.567-.332.177 1.016.545 5.066 5.366-2.75 1.476L7 14.701V9.506l.967-.52z"/></svg>
